X:649
T:Miss Johnstone
R:Reel
C:Mrs. Robertson
B:The Athole Collection
M:C|
L:1/8
K:G
d/c/|:Bcde dBBe|dBgB bBgB|Bcde dBBd|cAag fefd:|
BABd GGBA|GBDB GBDB|B2AG GGAG|FGAB cAec|
BABd GGBA|GBDB GBDB|dBcA BGAF|DEFG ABcd||

